X:1
T:Title
%%score 1 { 2 | 3 }
L:1/8
Q:1/4=100
M:3/4
K:C
V:1 treble nm="Grand Piano, Soprano"
V:2 bass nm="Choir Pad, The Days Are Swiftly Gliding By"
V:3 bass 
V:1
 [EG]2 [EG]3 [FA] | [EG][DF] [CE]>[A,F] [Cc]2- | [Cc][FA] [EG]3 [FA] | [EG][CE] [CE]2 [B,D]2 | %4
w: By~J.~Westwood~Tosh * *||||
 z [EG] [EG]3 [FA] | [EG][DF] [CE][DG] [Cc]2- | [Cc][Ec] [DB]3 [CA] | [B,G][C^F] [CF]2 [B,G]2 | %8
w: ||||
[M:4/4] [CE][DF] [EG]2- [EG][FA] [EG]2 | [CE][DF] [EG]2 [Ec]2 [EG]2- | %10
w: ||
 [EG][Ec] [Fd]2- [Fd][FB] [EG]2 | [DF]2 [CE]6 | [CE][DF] [EG]2 [FA]2 [EG]2 | %13
w: |||
 [Ge]2 [Fd]2 [Ac]2 [GB]2 | [FA]2 [EG][Ec]- [Ec]2 [FB]2 | [Fd]2 [Ec]6- | [Ec]2 z2 z4 |] %17
w: ||||
V:2
 G,2 G,3 G, | G,G, G,>G, G,2- | G,[K:treble]C C3 C | CG,[K:bass] G,2 G,2 | z G, G,3 G, | %5
 G,G, CG, A,2- | A,C G,3 ^F, | G,A, A,2 G,2 |[M:4/4] G,2[K:treble] C2 C2 C2 | G,2 C2 C2 C2- | %10
 CC[K:bass] B,2- B,D C2 | B,2[K:treble] C6 | G,2 C2 C2 C2 | C2 A,2 C2 C2 | C2 CC- C2 D2 | B,2 C6- | %16
 C2 z2 z4 |] %17
V:3
 C,2 C,3 C, | C,C, C,>C, E,2- | E,C, C,3 C, | C,C, G,,2 G,,2 | z C, C,3 C, | C,C, C,B,, A,,2- | %6
 A,,A,, D,3 D, | D,D, D,2 G,,2 |[M:4/4] C,2 C,2 C,2 C,2 | C,2 C,2 C,2 C,2- | C,C, G,2- G,G, G,2 | %11
 G,2 C,6 | C,2 C,2 C,2 C,2 | C,2 F,2 F,2 F,2 | F,2 G,G,- G,2 G,2 | G,2 C,6- | C,2 z2 z4 |] %17

